src/assets/images/icon-upload.svg

<?xml version="1.0" encoding="UTF-8"?>
<svg width="18px" height="20px" viewBox="0 0 18 20" version="1.1" xmlns="http://www.w3.org/2000/svg" xmlns:xlink="http://www.w3.org/1999/xlink">
    <!-- Generator: Sketch 51.2 (57519) - http://www.bohemiancoding.com/sketch -->
    <title>Icon</title>
    <desc>Created with Sketch.</desc>
    <defs></defs>
    <g id="Visual---Previewportaal" stroke="none" stroke-width="1" fill="none" fill-rule="evenodd">
        <g id="B.-Previewportaal---Publicatieoverzicht---Document-klaar-voor-uploaden" transform="translate(-173.000000, -548.000000)" fill="#FFFFFF" fill-rule="nonzero">
            <g id="Upload-document-[done]" transform="translate(43.000000, 347.000000)">
                <g id="Icon" transform="translate(130.000000, 201.000000)">
                    <g id="Group">
                        <path d="M3.88068214,9.39961538 L6.96818214,7.63861538 L6.96818214,13.3068846 C6.96818214,14.3149615 7.83983599,14.6157692 8.82402829,14.6153846 C9.80745137,14.6157692 10.6787591,14.3153462 10.6787591,13.3068846 L10.6787591,5.22523077 C10.6787591,5.22523077 10.7744129,5.16796154 10.8221052,5.34453846 C10.881836,5.56576923 11.5680668,8.14580769 11.5680668,8.14580769 L13.7662206,9.39957692 C14.2891437,9.69780769 14.9500283,9.58365385 15.3424898,9.12746154 C15.7352206,8.6715 15.7490668,7.99980769 15.3761821,7.52834615 L9.81033599,0.478346154 C9.57191291,0.176115385 9.20825906,0 8.82345137,0 C8.43864368,0 8.07498983,0.176115385 7.83656676,0.478346154 L2.2707206,7.52838462 C1.89752829,8.00019231 1.91148983,8.67126923 2.30445137,9.1275 C2.69687445,9.58369231 3.35779752,9.69784615 3.88068214,9.39961538 Z" id="Shape"></path>
                        <path d="M14.6153846,15 L14.6153846,16.9230769 L3.07692308,16.9230769 L3.07692308,15 L0,15 L0,18.8461538 C0,19.4834231 0.516576923,20 1.15384615,20 L16.5384615,20 C17.1757308,20 17.6923077,19.4834231 17.6923077,18.8461538 L17.6923077,15 L14.6153846,15 Z" id="Shape"></path>
                    </g>
                </g>
            </g>
        </g>
    </g>
</svg>

<svg aria-hidden="true" focusable="false" role="img" width="18" height="20" xmlns="http://www.w3.org/2000/svg"><g fill="#FFF"><path d="M3.88 9.4l3.088-1.761v5.668c0 1.008.872 1.309 1.856 1.308.983 0 1.855-.3 1.855-1.308V5.225s.095-.057.143.12c.06.22.746 2.8.746 2.8L13.766 9.4a1.258 1.258 0 0 0 1.61-1.872L9.81.478a1.257 1.257 0 0 0-1.973 0L2.27 7.528A1.257 1.257 0 0 0 3.88 9.4zM14.615 15v1.923H3.077V15H0v3.846C0 19.483.517 20 1.154 20h15.384c.638 0 1.154-.517 1.154-1.154V15h-3.077z"/></g></svg>
